X:1
T:Dwelling in Me
T:Dwelling in Me
T:Isaac Hickman Meredith
T:D. M. Buchanan, 1901
T:Public Domain Courtesy of the Cyber Hymnal™
C:Isaac Hickman Meredith
Z:Public Domain
Z:Courtesy of the Cyber Hymnal™
%%score 1 ( 2 3 )
L:1/8
Q:1/4=108
M:4/4
K:G
V:1 treble 
V:2 bass 
V:3 bass 
V:1
 [GB]4 [Gc]2 [GB]2 | [FB]3 [FA] [DG]4 | [EG]4 [DF]2 [CE]2 | [B,D]6 z2 | [A,D]4 [DF]2 [FA]2 | %5
w: 1.~Dwell- ing, O|God, in me,|Dwell- ing in|me;|Glad- ly my|
w: 2.~By faith I|wait on Thee,|Spir- it di-|vine!|Come, shed a-|
w: 3.~My heart Thy|tem- ple make|Se- cure for|Thee;|Live there both|
w: 4.~Thy grace suf-|fi- cient is|For ev- ery|strife;|Help me, by|
w: 5.~Then, till my|lat- est breath,|Thy- self im-|press;|That bright- ly|
 [DG]3 [DA] [GB]4 | [FA]4 [GB]2 [G^c]2 | [Fd]6 z2 | [Fc]4 [GB]2 [FA]2 | [DG]3 [DA] [GB]4 || %10
w: heart would plead,|To wel- come|Thee;|Tho’ won- drous|thought it be,|
w: broad Thy love,|My will in-|cline;|’Tis life and|peace to be,|
w: rich and full,|Thy- self for|me;|Thus pure my|thoughts shall be,|
w: faith and love,|To show my|life|A vic- t’ry|won by Thee,|
w: may my face|And life ex-|press|The sweet- est|joy of Thee,|
"^Refrain" [EA]4 [EG]2 [CE]2 | [CE]3 [B,D] [B,D]4 | [B,D]4 [DG]2 [DF]2 | ([CE]4 [Ec]2) z2 | %14
w: ||||
w: ||||
w: Dwell- ing, O|God, in me,|Dwell- ing in|me, *|
w: ||||
w: ||||
 [DB]4 [DG]2 [DA]2 | [DG]6 z2 |] %16
w: ||
w: ||
w: Dwell- ing in|me.|
w: ||
w: ||
V:2
 [G,D]4 [G,E]2 [G,D]2 | [D,D]3 [D,C] [G,B,]4 | [C,C]4 [C,G,]2 G,2 | G,6 z2 | %4
 [D,F,]4 [D,A,]2 [D,C]2 | [G,B,]3 [G,C] [G,D]4 | [A,D]4 [A,^C]2 [A,E]2 | [D,D]6 z2 | %8
 [D,A,]4 [D,D]2 [D,C]2 | [G,B,]3 [G,C] [G,D]4 || [C,C]4 [C,C]2 [C,G,]2 | [C,G,]3 [G,,G,] [G,,G,]4 | %12
 [G,,G,]4 [B,,G,]2 [B,,G,]2 | ([C,G,]4 [A,,A,]2) z2 | [D,G,]4 [D,B,]2 [D,C]2 | [G,,G,B,]6 z2 |] %16
V:3
 x8 | x8 | x6 (C,E,) | G,6 x2 | x8 | x8 | x8 | x8 | x8 | x8 || x8 | x8 | x8 | x8 | x8 | x8 |] %16

